www/assets/icons/ac_unit.svg

<svg xmlns="http://www.w3.org/2000/svg" width="24" height="24" viewBox="0 0 24 24" fill='currentColor'><path d="M22 11h-4.17l3.24-3.24-1.41-1.42L15 11h-2V9l4.66-4.66-1.42-1.41L13 6.17V2h-2v4.17L7.76 2.93 6.34 4.34 11 9v2H9L4.34 6.34 2.93 7.76 6.17 11H2v2h4.17l-3.24 3.24 1.41 1.42L9 13h2v2l-4.66 4.66 1.42 1.41L11 17.83V22h2v-4.17l3.24 3.24 1.42-1.41L13 15v-2h2l4.66 4.66 1.41-1.42L17.83 13H22z"/></svg>

<svg width="24" height="24" viewBox="0 0 24 24" xmlns="http://www.w3.org/2000/svg" fill='currentColor'><path d="M22 11H17.83L21.07 7.76L19.66 6.34L15 11H13V9L17.66 4.34L16.24 2.93L13 6.17V2H11V6.17L7.76 2.93L6.34 4.34L11 9V11H9L4.34 6.34L2.93 7.76L6.17 11H2V13H6.17L2.93 16.24L4.34 17.66L9 13H11V15L6.34 19.66L7.76 21.07L11 17.83V22H13V17.83L16.24 21.07L17.66 19.66L13 15V13H15L19.66 17.66L21.07 16.24L17.83 13H22V11Z"/></svg>
